design-system/icons/apps--labs-icons.svg

<svg width="22" height="20" viewBox="0 0 22 20" fill="none" xmlns="http://www.w3.org/2000/svg">
<mask id="mask0_270_82" style="mask-type:alpha" maskUnits="userSpaceOnUse" x="0" y="0" width="22" height="22">
<rect x="0.166504" width="21.0833" height="21.0833" fill="#D9D9D9"/>
</mask>
<g mask="url(#mask0_270_82)">
<path d="M4.99794 18.4479C4.38301 18.4479 3.86325 18.2356 3.43865 17.811C3.01406 17.3864 2.80176 16.8667 2.80176 16.2517C2.80176 15.6368 3.01406 15.117 3.43865 14.6924C3.86325 14.2679 4.38301 14.0556 4.99794 14.0556C5.61287 14.0556 6.13263 14.2679 6.55723 14.6924C6.98182 15.117 7.19412 15.6368 7.19412 16.2517C7.19412 16.8667 6.98182 17.3864 6.55723 17.811C6.13263 18.2356 5.61287 18.4479 4.99794 18.4479ZM10.708 18.4479C10.0931 18.4479 9.57331 18.2356 9.14872 17.811C8.72412 17.3864 8.51183 16.8667 8.51183 16.2517C8.51183 15.6368 8.72412 15.117 9.14872 14.6924C9.57331 14.2679 10.0931 14.0556 10.708 14.0556C11.3229 14.0556 11.8427 14.2679 12.2673 14.6924C12.6919 15.117 12.9042 15.6368 12.9042 16.2517C12.9042 16.8667 12.6919 17.3864 12.2673 17.811C11.8427 18.2356 11.3229 18.4479 10.708 18.4479ZM16.4181 18.4479C15.8031 18.4479 15.2834 18.2356 14.8588 17.811C14.4342 17.3864 14.2219 16.8667 14.2219 16.2517C14.2219 15.6368 14.4342 15.117 14.8588 14.6924C15.2834 14.2679 15.8031 14.0556 16.4181 14.0556C17.033 14.0556 17.5528 14.2679 17.9774 14.6924C18.402 15.117 18.6143 15.6368 18.6143 16.2517C18.6143 16.8667 18.402 17.3864 17.9774 17.811C17.5528 18.2356 17.033 18.4479 16.4181 18.4479ZM4.99794 12.7378C4.38301 12.7378 3.86325 12.5256 3.43865 12.101C3.01406 11.6764 2.80176 11.1566 2.80176 10.5417C2.80176 9.92674 3.01406 9.40697 3.43865 8.98238C3.86325 8.55778 4.38301 8.34549 4.99794 8.34549C5.61287 8.34549 6.13263 8.55778 6.55723 8.98238C6.98182 9.40697 7.19412 9.92674 7.19412 10.5417C7.19412 11.1566 6.98182 11.6764 6.55723 12.101C6.13263 12.5256 5.61287 12.7378 4.99794 12.7378ZM10.708 12.7378C10.0931 12.7378 9.57331 12.5256 9.14872 12.101C8.72412 11.6764 8.51183 11.1566 8.51183 10.5417C8.51183 9.92674 8.72412 9.40697 9.14872 8.98238C9.57331 8.55778 10.0931 8.34549 10.708 8.34549C11.3229 8.34549 11.8427 8.55778 12.2673 8.98238C12.6919 9.40697 12.9042 9.92674 12.9042 10.5417C12.9042 11.1566 12.6919 11.6764 12.2673 12.101C11.8427 12.5256 11.3229 12.7378 10.708 12.7378ZM16.4181 12.7378C15.8031 12.7378 15.2834 12.5256 14.8588 12.101C14.4342 11.6764 14.2219 11.1566 14.2219 10.5417C14.2219 9.92674 14.4342 9.40697 14.8588 8.98238C15.2834 8.55778 15.8031 8.34549 16.4181 8.34549C17.033 8.34549 17.5528 8.55778 17.9774 8.98238C18.402 9.40697 18.6143 9.92674 18.6143 10.5417C18.6143 11.1566 18.402 11.6764 17.9774 12.101C17.5528 12.5256 17.033 12.7378 16.4181 12.7378ZM4.99794 7.02778C4.38301 7.02778 3.86325 6.81548 3.43865 6.39089C3.01406 5.96629 2.80176 5.44653 2.80176 4.8316C2.80176 4.21667 3.01406 3.69691 3.43865 3.27231C3.86325 2.84772 4.38301 2.63542 4.99794 2.63542C5.61287 2.63542 6.13263 2.84772 6.55723 3.27231C6.98182 3.69691 7.19412 4.21667 7.19412 4.8316C7.19412 5.44653 6.98182 5.96629 6.55723 6.39089C6.13263 6.81548 5.61287 7.02778 4.99794 7.02778ZM10.708 7.02778C10.0931 7.02778 9.57331 6.81548 9.14872 6.39089C8.72412 5.96629 8.51183 5.44653 8.51183 4.8316C8.51183 4.21667 8.72412 3.69691 9.14872 3.27231C9.57331 2.84772 10.0931 2.63542 10.708 2.63542C11.3229 2.63542 11.8427 2.84772 12.2673 3.27231C12.6919 3.69691 12.9042 4.21667 12.9042 4.8316C12.9042 5.44653 12.6919 5.96629 12.2673 6.39089C11.8427 6.81548 11.3229 7.02778 10.708 7.02778ZM16.4181 7.02778C15.8031 7.02778 15.2834 6.81548 14.8588 6.39089C14.4342 5.96629 14.2219 5.44653 14.2219 4.8316C14.2219 4.21667 14.4342 3.69691 14.8588 3.27231C15.2834 2.84772 15.8031 2.63542 16.4181 2.63542C17.033 2.63542 17.5528 2.84772 17.9774 3.27231C18.402 3.69691 18.6143 4.21667 18.6143 4.8316C18.6143 5.44653 18.402 5.96629 17.9774 6.39089C17.5528 6.81548 17.033 7.02778 16.4181 7.02778Z" fill="#1C1B1F"/>
</g>
</svg>

<svg xmlns="http://www.w3.org/2000/svg" width="22" height="20" fill="none" viewBox="0 0 22 20"><mask id="a" width="22" height="22" x="0" y="0" maskUnits="userSpaceOnUse" style="mask-type:alpha"><path fill="#d9d9d9" d="M.167 0H21.25v21.083H.167z"/></mask><g mask="url(#a)"><path fill="#1c1b1f" d="M4.998 18.448a2.12 2.12 0 0 1-1.56-.637 2.12 2.12 0 0 1-.636-1.56q0-.921.637-1.559a2.12 2.12 0 0 1 1.559-.636 2.12 2.12 0 0 1 1.56.636q.636.637.636 1.56a2.12 2.12 0 0 1-.637 1.559 2.12 2.12 0 0 1-1.56.637m5.71 0a2.12 2.12 0 0 1-1.56-.637 2.12 2.12 0 0 1-.636-1.56q0-.921.637-1.559a2.12 2.12 0 0 1 1.559-.636q.922 0 1.56.636.636.637.636 1.56a2.12 2.12 0 0 1-.637 1.559 2.12 2.12 0 0 1-1.559.637m5.71 0a2.12 2.12 0 0 1-1.56-.637 2.12 2.12 0 0 1-.636-1.56q0-.921.637-1.559a2.12 2.12 0 0 1 1.56-.636q.922 0 1.558.636.637.637.637 1.56a2.12 2.12 0 0 1-.637 1.559 2.12 2.12 0 0 1-1.559.637m-11.42-5.71a2.12 2.12 0 0 1-1.56-.637 2.12 2.12 0 0 1-.636-1.56q0-.921.637-1.559a2.12 2.12 0 0 1 1.559-.637 2.12 2.12 0 0 1 1.56.637q.636.637.636 1.56a2.12 2.12 0 0 1-.637 1.559 2.12 2.12 0 0 1-1.56.637m5.71 0a2.12 2.12 0 0 1-1.56-.637 2.12 2.12 0 0 1-.636-1.56q0-.921.637-1.559a2.12 2.12 0 0 1 1.559-.637 2.12 2.12 0 0 1 1.56.637q.636.637.636 1.56a2.12 2.12 0 0 1-.637 1.559 2.12 2.12 0 0 1-1.559.637m5.71 0a2.12 2.12 0 0 1-1.56-.637 2.12 2.12 0 0 1-.636-1.56q0-.921.637-1.559a2.12 2.12 0 0 1 1.56-.637 2.12 2.12 0 0 1 1.558.637q.637.637.637 1.56a2.12 2.12 0 0 1-.637 1.559 2.12 2.12 0 0 1-1.559.637m-11.42-5.71a2.12 2.12 0 0 1-1.56-.637 2.12 2.12 0 0 1-.636-1.56q0-.921.637-1.559a2.12 2.12 0 0 1 1.559-.637 2.12 2.12 0 0 1 1.56.637q.636.638.636 1.56a2.12 2.12 0 0 1-.637 1.559 2.12 2.12 0 0 1-1.56.637m5.71 0a2.12 2.12 0 0 1-1.56-.637 2.12 2.12 0 0 1-.636-1.56q0-.921.637-1.559a2.12 2.12 0 0 1 1.559-.637 2.12 2.12 0 0 1 1.56.637q.636.638.636 1.56a2.12 2.12 0 0 1-.637 1.559 2.12 2.12 0 0 1-1.559.637m5.71 0a2.12 2.12 0 0 1-1.56-.637 2.12 2.12 0 0 1-.636-1.56q0-.921.637-1.559a2.12 2.12 0 0 1 1.56-.637 2.12 2.12 0 0 1 1.558.637q.637.638.637 1.56a2.12 2.12 0 0 1-.637 1.559 2.12 2.12 0 0 1-1.559.637"/></g></svg>
